X:38
T:Adieu ma Dedee
I:last changed 14/2/2016
F:http://www.campin.me.uk/Music/Edinbal.abc
C:Philippe Plard
M:3/4
L:1/8
Q:3/4=40
K:AMin
    E AB|c3  E AB|c3  E   AB|c6-         |c3
    E Bc|d3  c cB|d2 c3    B|e6-         |e3
    e fg|f3  e fg|f3  d   ef|e2 ed- de/g/|e2
(3ege dc|B3  B B2|B2 c3 [1 d|c6          |A3:|\
                        [2 B|A6-         |A2||
  c2  d2|e3  c de|e3  c   de|f6-         |f3
   d  ef|f3  d ef|f3  d   ef|g6-         |g
e ge  dc|B6-     |B2 cd   cB|c6-         |c
A Bc  BA|BE Bd cB|dE Bd   cB|A6-         |A2:|

